ui/StatusQ/src/assets/img/icons/tiny/chevron-left.svg

<svg fill="none" height="16" viewBox="0 0 16 16" width="16" xmlns="http://www.w3.org/2000/svg"><path clip-rule="evenodd" d="m10.0303 4.96967c.2929.29289.2929.76777 0 1.06066l-2.11609 2.11612c-.19526.19526-.19526.51184 0 .7071l2.11609 2.11615c.2929.2929.2929.7677 0 1.0606-.29286.2929-.76774.2929-1.06063 0l-3-2.99997c-.29289-.29289-.29289-.76777 0-1.06066l3-3c.29289-.29289.76777-.29289 1.06063 0z" fill="#000" fill-rule="evenodd"/></svg>

<svg width="16" height="16" viewBox="0 0 16 16" fill="none" xmlns="http://www.w3.org/2000/svg">
<path fill-rule="evenodd" clip-rule="evenodd" d="M10.0303 4.96967C10.3232 5.26256 10.3232 5.73744 10.0303 6.03033L7.91421 8.14645C7.71895 8.34171 7.71895 8.65829 7.91421 8.85355L10.0303 10.9697C10.3232 11.2626 10.3232 11.7374 10.0303 12.0303C9.73744 12.3232 9.26256 12.3232 8.96967 12.0303L5.96967 9.03033C5.67678 8.73744 5.67678 8.26256 5.96967 7.96967L8.96967 4.96967C9.26256 4.67678 9.73744 4.67678 10.0303 4.96967Z" fill="black"/>
</svg>
